X: 13661
T: Follow Me Down To Milltown
R: barndance
M: 4/4
K: Dmajor
A>z F>z A>z (3FGA|B>z G>z B>z (3dcB|(3ABA F>D A2 (3FED|E2 F2 G2 (3BAG|
A2- A>^G A>DF>A|B2- B>^A (3Bcd c>B|A2 (3dcB A2 (3GFE|D2 A/G/F/E/ D4||
A>df>d A2 f>d|A>ce>c A2 e>c|A2 f>d A>d (3fed|e2- e>c d2- d>B|
A>d f2 a>d f2|A>c e2 g>c e2|d>z c2 A2 G>E|D>z C2 D4||

